X:111
T:Crotchet Lodge. WM.111
M:C
L:1/8
Q:1/2=100
S:Wm.Mittell’s MS, New Romney,Kent,1799
R:.Reel
O:England
A:Kent
Z:vmp.Chris Partington
K:D
afef deB2|Adef baf2|abfa efdB|(AB)(de) ([fb] [da])[d2f2]:|!
|:BdAd BdA2|Acef (ba).f2|abfa efdB|ABde fdd2:|

